X: 235
T:The Pipe on the Hob
N: page 77
N: heptatonic
R: Jig
M:6/8
L:1/8
K:Ador
AB|"Am"c3 edc|edc "G"BAG|"Am"A3 g3|eaa "G"ged|"Am"c3 edc|\
ed^c "G"deg|"Am"age "G"dBe|"Am"A3 A:|
ef|"G"g3 geg|"Am"age "G"dBe|"Am"A3 g3|eaa "G"gef|g3 geg|\
"Am"age "G"deg|"Am"age "G"dBe|[1"Am"A3 A:|[2"Am"A3 A2|:
B|"Am"c3 "G"dcd|"Am"ecA AGE|c3 "G"dcd|"Am"ecA A2 B|cBc "G"dcd|\
"Em"ede gab|"Am"age "G"dBe|"Am"A3 A2:|
